public/images/404_image.svg

<svg width="453" height="453" viewBox="0 0 453 453" fill="none" xmlns="http://www.w3.org/2000/svg">
<g clip-path="url(#clip0_1922_1072)">
<path d="M278.596 226.5H308.89" stroke="black" stroke-miterlimit="10" stroke-linecap="round"/>
<path d="M384.768 226.5H415.062" stroke="#C6C6C6" stroke-miterlimit="10" stroke-linecap="round"/>
<path d="M226.5 275.057V305.351" stroke="#C6C6C6" stroke-miterlimit="10" stroke-linecap="round"/>
<path d="M226.5 381.229V411.523" stroke="#C6C6C6" stroke-miterlimit="10" stroke-linecap="round"/>
<path d="M37.9395 226.5H68.2338" stroke="#C6C6C6" stroke-miterlimit="10" stroke-linecap="round"/>
<path d="M144.111 226.5H174.406" stroke="#C6C6C6" stroke-miterlimit="10" stroke-linecap="round"/>
<path d="M226.5 37.9395V68.2338" stroke="black" stroke-miterlimit="10" stroke-linecap="round"/>
<path d="M222 65L226.5 69L231 65" stroke="black" stroke-miterlimit="10" stroke-linecap="round"/>
<path d="M226.5 144.111V174.406" stroke="black" stroke-miterlimit="10" stroke-linecap="round"/>
<path d="M212.236 0H207.99C207.791 0 207.636 0.155719 207.636 0.353906C207.636 0.552094 207.791 0.707812 207.99 0.707812H211.529V4.40259C211.529 4.60078 211.684 4.7565 211.883 4.7565C212.081 4.7565 212.236 4.60078 212.236 4.40259V0ZM200.911 0H196.665C196.466 0 196.311 0.155719 196.311 0.353906C196.311 0.552094 196.466 0.707812 196.665 0.707812H200.911C201.11 0.707812 201.265 0.552094 201.265 0.353906C201.265 0.155719 201.11 0 200.911 0ZM189.586 0H185.34C185.141 0 184.986 0.155719 184.986 0.353906C184.986 0.552094 185.141 0.707812 185.34 0.707812H189.586C189.785 0.707812 189.94 0.552094 189.94 0.353906C189.94 0.155719 189.785 0 189.586 0ZM178.261 0H174.015C173.816 0 173.661 0.155719 173.661 0.353906C173.661 0.552094 173.816 0.707812 174.015 0.707812H178.261C178.46 0.707812 178.615 0.552094 178.615 0.353906C178.615 0.155719 178.46 0 178.261 0ZM166.936 0H162.69C162.491 0 162.336 0.155719 162.336 0.353906C162.336 0.552094 162.491 0.707812 162.69 0.707812H166.936C167.135 0.707812 167.29 0.552094 167.29 0.353906C167.29 0.155719 167.135 0 166.936 0ZM155.611 0H151.365C151.166 0 151.011 0.155719 151.011 0.353906C151.011 0.552094 151.166 0.707812 151.365 0.707812H155.611C155.81 0.707812 155.965 0.552094 155.965 0.353906C155.965 0.155719 155.81 0 155.611 0ZM144.286 0H140.04C139.841 0 139.686 0.155719 139.686 0.353906C139.686 0.552094 139.841 0.707812 140.04 0.707812H144.286C144.485 0.707812 144.64 0.552094 144.64 0.353906C144.64 0.155719 144.485 0 144.286 0ZM132.961 0H128.715C128.516 0 128.361 0.155719 128.361 0.353906C128.361 0.552094 128.516 0.707812 128.715 0.707812H132.961C133.16 0.707812 133.315 0.552094 133.315 0.353906C133.315 0.155719 133.16 0 132.961 0ZM121.636 0H117.39C117.191 0 117.036 0.155719 117.036 0.353906C117.036 0.552094 117.191 0.707812 117.39 0.707812H121.636C121.835 0.707812 121.99 0.552094 121.99 0.353906C121.99 0.155719 121.835 0 121.636 0ZM110.708 0H110V0.707812V3.93544C110 4.13363 110.156 4.28934 110.354 4.28934C110.552 4.28934 110.708 4.13363 110.708 3.93544V0ZM110.354 10.6597C110.156 10.6597 110 10.8154 110 11.0136V15.2604C110 15.4586 110.156 15.6143 110.354 15.6143C110.552 15.6143 110.708 15.4586 110.708 15.2604V11.0136C110.708 10.8154 110.552 10.6597 110.354 10.6597ZM110.354 21.9847C110.156 21.9847 110 22.1404 110 22.3386V26.5854C110 26.7836 110.156 26.9393 110.354 26.9393C110.552 26.9393 110.708 26.7836 110.708 26.5854V22.3386C110.708 22.1404 110.552 21.9847 110.354 21.9847ZM110.354 33.3097C110.156 33.3097 110 33.4654 110 33.6636V37.9104C110 38.1086 110.156 38.2643 110.354 38.2643C110.552 38.2643 110.708 38.1086 110.708 37.9104V33.6636C110.708 33.4654 110.552 33.3097 110.354 33.3097ZM110.354 44.6347C110.156 44.6347 110 44.7904 110 44.9886V47.1899H112.046C112.244 47.1899 112.399 47.0341 112.399 46.836C112.399 46.6378 112.244 46.482 112.046 46.482H110.708V44.9886C110.708 44.7904 110.552 44.6347 110.354 44.6347ZM123.371 46.482H119.124C118.926 46.482 118.77 46.6378 118.77 46.836C118.77 47.0341 118.926 47.1899 119.124 47.1899H123.371C123.569 47.1899 123.724 47.0341 123.724 46.836C123.724 46.6378 123.569 46.482 123.371 46.482ZM134.696 46.482H130.449C130.251 46.482 130.095 46.6378 130.095 46.836C130.095 47.0341 130.251 47.1899 130.449 47.1899H134.696C134.894 47.1899 135.049 47.0341 135.049 46.836C135.049 46.6378 134.894 46.482 134.696 46.482ZM146.021 46.482H141.774C141.576 46.482 141.42 46.6378 141.42 46.836C141.42 47.0341 141.576 47.1899 141.774 47.1899H146.021C146.219 47.1899 146.374 47.0341 146.374 46.836C146.374 46.6378 146.219 46.482 146.021 46.482ZM157.346 46.482H153.099C152.901 46.482 152.745 46.6378 152.745 46.836C152.745 47.0341 152.901 47.1899 153.099 47.1899H157.346C157.544 47.1899 157.699 47.0341 157.699 46.836C157.699 46.6378 157.544 46.482 157.346 46.482ZM168.671 46.482H164.424C164.226 46.482 164.07 46.6378 164.07 46.836C164.07 47.0341 164.226 47.1899 164.424 47.1899H168.671C168.869 47.1899 169.024 47.0341 169.024 46.836C169.024 46.6378 168.869 46.482 168.671 46.482ZM179.996 46.482H175.749C175.551 46.482 175.395 46.6378 175.395 46.836C175.395 47.0341 175.551 47.1899 175.749 47.1899H179.996C180.194 47.1899 180.349 47.0341 180.349 46.836C180.349 46.6378 180.194 46.482 179.996 46.482ZM191.321 46.482H187.074C186.876 46.482 186.72 46.6378 186.72 46.836C186.72 47.0341 186.876 47.1899 187.074 47.1899H191.321C191.519 47.1899 191.674 47.0341 191.674 46.836C191.674 46.6378 191.519 46.482 191.321 46.482ZM202.646 46.482H198.399C198.201 46.482 198.045 46.6378 198.045 46.836C198.045 47.0341 198.201 47.1899 198.399 47.1899H202.646C202.844 47.1899 202.999 47.0341 202.999 46.836C202.999 46.6378 202.844 46.482 202.646 46.482ZM211.89 45.1089C211.691 45.1089 211.536 45.2646 211.536 45.4628V46.482H209.724C209.526 46.482 209.37 46.6378 209.37 46.836C209.37 47.0341 209.526 47.1899 209.724 47.1899H212.244V45.4628C212.244 45.2646 212.088 45.1089 211.89 45.1089ZM211.89 33.7839C211.691 33.7839 211.536 33.9396 211.536 34.1378V38.3847C211.536 38.5829 211.691 38.7386 211.89 38.7386C212.088 38.7386 212.244 38.5829 212.244 38.3847V34.1378C212.244 33.9396 212.088 33.7839 211.89 33.7839ZM211.89 22.4589C211.691 22.4589 211.536 22.6146 211.536 22.8128V27.0597C211.536 27.2579 211.691 27.4136 211.89 27.4136C212.088 27.4136 212.244 27.2579 212.244 27.0597V22.8128C212.244 22.6146 212.088 22.4589 211.89 22.4589ZM211.89 11.1339C211.691 11.1339 211.536 11.2896 211.536 11.4878V15.7347C211.536 15.9329 211.691 16.0886 211.89 16.0886C212.088 16.0886 212.244 15.9329 212.244 15.7347V11.4878C212.244 11.2896 212.088 11.1339 211.89 11.1339Z" fill="black"/>
<path d="M117.666 212.343V125.834H94.0746V212.343H117.666Z" fill="#F8F8F8"/>
<path d="M102.244 55.0537V0L78.6527 0V55.0537H102.244Z" fill="#F8F8F8"/>
<path d="M86.2109 212.343V125.834H62.6195V212.343H86.2109Z" fill="#F8F8F8"/>
<path d="M102 94H0V118H102V94Z" fill="#F8F8F8"/>
<path d="M212.344 94.373H110.107V117.964H212.344V94.373Z" fill="#F8F8F8"/>
<path d="M102.236 62.918H0V86.5094H102.236V62.918Z" fill="#F8F8F8"/>
<path d="M54.7493 125.834H0V149.425H54.7493V125.834Z" fill="#F8F8F8"/>
<path d="M212.344 125.834H125.531V161.876H212.344V125.834Z" fill="#F8F8F8"/>
<path d="M54.7493 157.291H0V212.345H54.7493V157.291Z" fill="#F8F8F8"/>
<path d="M212.344 169.74H168.934V212.343H212.344V169.74Z" fill="#F8F8F8"/>
<path d="M161.071 169.74H125.531V212.343H161.071V169.74Z" fill="#F8F8F8"/>
<path d="M212.344 55.0527H168.934V86.5079H212.344V55.0527Z" fill="#F8F8F8"/>
<path d="M161.077 55.0527H110.107V86.5079H161.077V55.0527Z" fill="#F8F8F8"/>
<path d="M70.7812 0H0V55.0537H70.7812V0Z" fill="#F8F8F8"/>
<path d="M212.344 279.982H168.934V327.172H212.344V279.982Z" fill="#F8F8F8"/>
<path d="M102.244 453.001V397.947H78.6527V453.001H102.244Z" fill="#F8F8F8"/>
<path d="M102.236 358.627L102.236 240.656H78.6449V358.627H102.236Z" fill="#F8F8F8"/>
<path d="M212.344 335.029H110.107V358.621H212.344V335.029Z" fill="#F8F8F8"/>
<path d="M70.7812 303.574H0V358.628H70.7812V303.574Z" fill="#F8F8F8"/>
<path d="M102.236 366.49H0V390.082H102.236V366.49Z" fill="#F8F8F8"/>
<path d="M212.343 366.49H172.713V402.532H212.343V366.49Z" fill="#F8F8F8"/>
<path d="M70.7812 397.947H0V453.001H70.7812V397.947Z" fill="#F8F8F8"/>
<path d="M212.343 410.396H172.713V453H212.343V410.396Z" fill="#F8F8F8"/>
<path d="M133.699 366.49H110.107V452.999H133.699V366.49Z" fill="#F8F8F8"/>
<path d="M165.154 366.49H141.562V452.999H165.154V366.49Z" fill="#F8F8F8"/>
<path d="M212.344 240.656H168.934V272.111H212.344V240.656Z" fill="#F8F8F8"/>
<path d="M161.077 240.656H110.107V327.165H161.077V240.656Z" fill="#F8F8F8"/>
<path d="M70.7812 240.656H0V295.71H70.7812V240.656Z" fill="#F8F8F8"/>
<path d="M279.982 240.648V284.059H327.172V240.648H279.982Z" fill="#F8F8F8"/>
<path d="M452.999 335.334H366.49V358.925H452.999V335.334Z" fill="#F8F8F8"/>
<path d="M327.165 350.764H240.656V374.355H327.165V350.764Z" fill="#F8F8F8"/>
<path d="M452.999 366.795H366.49V390.386H452.999V366.795Z" fill="#F8F8F8"/>
<path d="M335.029 335.333V453H358.621V335.333H335.029Z" fill="#F8F8F8"/>
<path d="M366.49 398.251V453H390.082V398.251H366.49Z" fill="#F8F8F8"/>
<path d="M397.953 398.251V453H453.007V398.251H397.953Z" fill="#F8F8F8"/>
<path d="M409.59 240.656V284.066H453V240.656H409.59Z" fill="#F8F8F8"/>
<path d="M410.396 291.929V327.469H453V291.929H410.396Z" fill="#F8F8F8"/>
<path d="M240.656 240.648V284.059H272.111V240.648H240.656Z" fill="#F8F8F8"/>
<path d="M240.656 291.923V342.893H327.165V291.923H240.656Z" fill="#F8F8F8"/>
<path d="M240.656 382.219V453H327.165V382.219H240.656Z" fill="#F8F8F8"/>
<path d="M240.656 173.018H284.066V125.828H240.656V173.018Z" fill="#F8F8F8"/>
<path d="M335.334 0.000946045V86.5098H358.925V0.000946045H335.334Z" fill="#F8F8F8"/>
<path d="M350.756 157.29V212.344H374.347V157.29H350.756Z" fill="#F8F8F8"/>
<path d="M366.795 0.000301361V42.6035H390.386V0.000301361H366.795Z" fill="#F8F8F8"/>
<path d="M350.764 117.971L453 117.971V94.3793L350.764 94.3793V117.971Z" fill="#F8F8F8"/>
<path d="M240.656 117.971L342.893 117.971V94.3793L240.656 94.3793V117.971Z" fill="#F8F8F8"/>
<path d="M350.764 149.426H453V125.834L350.764 125.834V149.426Z" fill="#F8F8F8"/>
<path d="M366.796 86.5156L453 86.5156V50.4738L366.796 50.4738V86.5156Z" fill="#F8F8F8"/>
<path d="M240.656 86.5156L327.469 86.5156V50.4738L240.656 50.4738V86.5156Z" fill="#F8F8F8"/>
<path d="M398.251 42.6035L453 42.6035V0.000282288L398.251 0.000282288V42.6035Z" fill="#F8F8F8"/>
<path d="M240.656 42.6035L284.066 42.6035V0.000282288L240.656 0.000282288V42.6035Z" fill="#F8F8F8"/>
<path d="M291.929 42.6035L327.469 42.6035V0.000282288L291.929 0.000282288V42.6035Z" fill="#F8F8F8"/>
<path d="M240.656 212.344H284.066V180.889H240.656V212.344Z" fill="#F8F8F8"/>
<path d="M291.923 212.344H342.893V125.835H291.923V212.344Z" fill="#F8F8F8"/>
<path d="M382.219 212.344H453V157.29H382.219V212.344Z" fill="#F8F8F8"/>
<path d="M401.824 241.364V326.762H335.743V241.364H401.824ZM402.532 240.656H335.035V327.469H402.532V240.656Z" fill="black"/>
<path d="M368.777 255.98C369.025 255.98 369.266 255.867 369.421 255.676C369.974 255.011 382.934 239.326 382.934 231.752C382.934 224.178 376.585 217.596 368.777 217.596C360.97 217.596 354.621 223.945 354.621 231.752C354.621 239.559 367.581 255.011 368.133 255.676C368.289 255.867 368.53 255.98 368.777 255.98Z" fill="black"/>
<path d="M363.426 231.22C363.426 228.269 365.825 225.869 368.777 225.869C371.728 225.869 374.128 228.269 374.128 231.22C374.128 234.172 371.728 236.571 368.777 236.571C365.825 236.571 363.426 234.172 363.426 231.22Z" fill="white"/>
<path d="M306 231L310 226.5L306 222" stroke="black" stroke-miterlimit="10" stroke-linecap="round"/>
<path d="M171 231L175 226.5L171 222" stroke="#C6C6C6" stroke-miterlimit="10" stroke-linecap="round"/>
</g>
<defs>
<clipPath id="clip0_1922_1072">
<rect width="453" height="453" fill="white"/>
</clipPath>
</defs>
</svg>

<svg width="453" height="453" fill="none" xmlns="http://www.w3.org/2000/svg"><g clip-path="url(#a)"><path d="M278.596 226.5h30.294" stroke="#000" stroke-miterlimit="10" stroke-linecap="round"/><path d="M384.768 226.5h30.294M226.5 275.057v30.294M226.5 381.229v30.294M37.94 226.5h30.294M144.111 226.5h30.295" stroke="#C6C6C6" stroke-miterlimit="10" stroke-linecap="round"/><path d="M226.5 37.94v30.294M222 65l4.5 4 4.5-4M226.5 144.111v30.295" stroke="#000" stroke-miterlimit="10" stroke-linecap="round"/><path d="M212.236 0h-4.246a.35.35 0 0 0-.354.354.35.35 0 0 0 .354.354h3.539v3.695a.35.35 0 0 0 .354.354.35.35 0 0 0 .353-.354V0Zm-11.325 0h-4.246a.35.35 0 0 0-.354.354.35.35 0 0 0 .354.354h4.246a.35.35 0 0 0 .354-.354.35.35 0 0 0-.354-.354Zm-11.325 0h-4.246a.35.35 0 0 0-.354.354.35.35 0 0 0 .354.354h4.246a.35.35 0 0 0 .354-.354.35.35 0 0 0-.354-.354Zm-11.325 0h-4.246a.35.35 0 0 0-.354.354.35.35 0 0 0 .354.354h4.246a.35.35 0 0 0 .354-.354.35.35 0 0 0-.354-.354Zm-11.325 0h-4.246a.35.35 0 0 0-.354.354.35.35 0 0 0 .354.354h4.246a.35.35 0 0 0 .354-.354.35.35 0 0 0-.354-.354Zm-11.325 0h-4.246a.35.35 0 0 0-.354.354.35.35 0 0 0 .354.354h4.246a.35.35 0 0 0 .354-.354.35.35 0 0 0-.354-.354Zm-11.325 0h-4.246a.35.35 0 0 0-.354.354.35.35 0 0 0 .354.354h4.246a.35.35 0 0 0 .354-.354.35.35 0 0 0-.354-.354Zm-11.325 0h-4.246a.35.35 0 0 0-.354.354.35.35 0 0 0 .354.354h4.246a.35.35 0 0 0 .354-.354.35.35 0 0 0-.354-.354Zm-11.325 0h-4.246a.35.35 0 0 0-.354.354.35.35 0 0 0 .354.354h4.246a.35.35 0 0 0 .354-.354.35.35 0 0 0-.354-.354Zm-10.928 0H110V3.935a.35.35 0 0 0 .354.354.35.35 0 0 0 .354-.354V0Zm-.354 10.66a.35.35 0 0 0-.354.354v4.246a.35.35 0 0 0 .354.354.35.35 0 0 0 .354-.354v-4.246a.35.35 0 0 0-.354-.354Zm0 11.325a.35.35 0 0 0-.354.354v4.246a.35.35 0 0 0 .354.354.35.35 0 0 0 .354-.354V22.34a.35.35 0 0 0-.354-.354Zm0 11.325a.35.35 0 0 0-.354.354v4.246a.35.35 0 0 0 .354.354.35.35 0 0 0 .354-.354v-4.246a.35.35 0 0 0-.354-.354Zm0 11.325a.35.35 0 0 0-.354.354v2.2h2.046a.35.35 0 0 0 .353-.353.35.35 0 0 0-.353-.354h-1.338v-1.493a.35.35 0 0 0-.354-.354Zm13.017 1.847h-4.247a.35.35 0 0 0-.354.354.35.35 0 0 0 .354.354h4.247a.35.35 0 0 0 .353-.354.35.35 0 0 0-.353-.354Zm11.325 0h-4.247a.35.35 0 0 0-.354.354.35.35 0 0 0 .354.354h4.247a.35.35 0 0 0 .353-.354.35.35 0 0 0-.353-.354Zm11.325 0h-4.247a.35.35 0 0 0-.354.354.35.35 0 0 0 .354.354h4.247a.35.35 0 0 0 .353-.354.35.35 0 0 0-.353-.354Zm11.325 0h-4.247a.35.35 0 0 0-.354.354.35.35 0 0 0 .354.354h4.247a.35.35 0 0 0 .353-.354.35.35 0 0 0-.353-.354Zm11.325 0h-4.247a.35.35 0 0 0-.354.354.35.35 0 0 0 .354.354h4.247a.35.35 0 0 0 .353-.354.35.35 0 0 0-.353-.354Zm11.325 0h-4.247a.35.35 0 0 0-.354.354.35.35 0 0 0 .354.354h4.247a.35.35 0 0 0 .353-.354.35.35 0 0 0-.353-.354Zm11.325 0h-4.247a.35.35 0 0 0-.354.354.35.35 0 0 0 .354.354h4.247a.35.35 0 0 0 .353-.354.35.35 0 0 0-.353-.354Zm11.325 0h-4.247a.35.35 0 0 0-.354.354.35.35 0 0 0 .354.354h4.247a.35.35 0 0 0 .353-.354.35.35 0 0 0-.353-.354Zm9.244-1.373a.35.35 0 0 0-.354.354v1.019h-1.812a.35.35 0 0 0-.354.354.35.35 0 0 0 .354.354h2.52v-1.727a.35.35 0 0 0-.354-.354Zm0-11.325a.35.35 0 0 0-.354.354v4.247a.35.35 0 0 0 .354.354.35.35 0 0 0 .354-.354v-4.247a.35.35 0 0 0-.354-.354Zm0-11.325a.35.35 0 0 0-.354.354v4.247a.35.35 0 0 0 .354.354.35.35 0 0 0 .354-.354v-4.247a.35.35 0 0 0-.354-.354Zm0-11.325a.35.35 0 0 0-.354.354v4.247a.35.35 0 0 0 .354.354.35.35 0 0 0 .354-.354v-4.247a.35.35 0 0 0-.354-.354Z" fill="#000"/><path d="M117.666 212.343v-86.509H94.075v86.509h23.591ZM102.244 55.054V0H78.653v55.054h23.591ZM86.21 212.343v-86.509H62.62v86.509h23.59ZM102 94H0v24h102V94ZM212.344 94.373H110.107v23.591h102.237V94.373ZM102.236 62.918H0v23.591h102.236V62.918ZM54.75 125.834H0v23.591h54.75v-23.591ZM212.344 125.834h-86.813v36.042h86.813v-36.042ZM54.75 157.291H0v55.054h54.75v-55.054ZM212.344 169.74h-43.41v42.603h43.41V169.74ZM161.071 169.74h-35.54v42.603h35.54V169.74ZM212.344 55.053h-43.41v31.455h43.41V55.053ZM161.077 55.053h-50.97v31.455h50.97V55.053ZM70.781 0H0v55.054h70.781V0ZM212.344 279.982h-43.41v47.19h43.41v-47.19ZM102.244 453.001v-55.054H78.653v55.054h23.591ZM102.236 358.627V240.656H78.645v117.971h23.591ZM212.344 335.029H110.107v23.592h102.237v-23.592ZM70.781 303.574H0v55.054h70.781v-55.054ZM102.236 366.49H0v23.592h102.236V366.49ZM212.343 366.49h-39.63v36.042h39.63V366.49ZM70.781 397.947H0v55.054h70.781v-55.054ZM212.343 410.396h-39.63V453h39.63v-42.604ZM133.699 366.49h-23.592v86.509h23.592V366.49ZM165.154 366.49h-23.592v86.509h23.592V366.49ZM212.344 240.656h-43.41v31.455h43.41v-31.455ZM161.077 240.656h-50.97v86.509h50.97v-86.509ZM70.781 240.656H0v55.054h70.781v-55.054ZM279.982 240.648v43.411h47.19v-43.411h-47.19ZM452.999 335.334H366.49v23.591h86.509v-23.591ZM327.165 350.764h-86.509v23.591h86.509v-23.591ZM452.999 366.795H366.49v23.591h86.509v-23.591ZM335.029 335.333V453h23.592V335.333h-23.592ZM366.49 398.251V453h23.592v-54.749H366.49ZM397.953 398.251V453h55.054v-54.749h-55.054ZM409.59 240.656v43.41H453v-43.41h-43.41ZM410.396 291.929v35.54H453v-35.54h-42.604ZM240.656 240.648v43.411h31.455v-43.411h-31.455ZM240.656 291.923v50.97h86.509v-50.97h-86.509ZM240.656 382.219V453h86.509v-70.781h-86.509ZM240.656 173.018h43.41v-47.19h-43.41v47.19ZM335.334 0v86.51h23.591V0h-23.591ZM350.756 157.29v55.054h23.591V157.29h-23.591ZM366.795 0v42.603h23.591V0h-23.591ZM350.764 117.971H453V94.379H350.764v23.592ZM240.656 117.971h102.237V94.379H240.656v23.592ZM350.764 149.426H453v-23.592H350.764v23.592ZM366.796 86.516H453V50.474h-86.204v36.042ZM240.656 86.516h86.813V50.474h-86.813v36.042ZM398.251 42.603H453V0h-54.749v42.603ZM240.656 42.603h43.41V0h-43.41v42.603ZM291.929 42.603h35.54V0h-35.54v42.603ZM240.656 212.344h43.41v-31.455h-43.41v31.455ZM291.923 212.344h50.97v-86.509h-50.97v86.509ZM382.219 212.344H453V157.29h-70.781v55.054Z" fill="#F8F8F8"/><path d="M401.824 241.364v85.398h-66.081v-85.398h66.081Zm.708-.708h-67.497v86.813h67.497v-86.813Z" fill="#000"/><path d="M368.777 255.98a.836.836 0 0 0 .644-.304c.553-.665 13.513-16.35 13.513-23.924 0-7.574-6.349-14.156-14.157-14.156-7.807 0-14.156 6.349-14.156 14.156s12.96 23.259 13.512 23.924a.839.839 0 0 0 .644.304Z" fill="#000"/><path d="M363.426 231.22a5.356 5.356 0 0 1 5.351-5.351c2.951 0 5.351 2.4 5.351 5.351 0 2.952-2.4 5.351-5.351 5.351a5.355 5.355 0 0 1-5.351-5.351Z" fill="#fff"/><path d="m306 231 4-4.5-4-4.5" stroke="#000" stroke-miterlimit="10" stroke-linecap="round"/><path d="m171 231 4-4.5-4-4.5" stroke="#C6C6C6" stroke-miterlimit="10" stroke-linecap="round"/><path d="m222 171 4.5 4 4.5-4" stroke="#000" stroke-miterlimit="10" stroke-linecap="round"/><path d="m222 302 4.5 4 4.5-4M412 231l4-4.5-4-4.5M222 408l4.5 4 4.5-4M65 231l4-4.5-4-4.5" stroke="#C6C6C6" stroke-miterlimit="10" stroke-linecap="round"/></g><defs><clipPath id="a"><path fill="#fff" d="M0 0h453v453H0z"/></clipPath></defs></svg>
